X: 2
T: Belgarth Waltz v.2
C: Brian \'O Eadra
D: Anam "Riptide" 1998
%D:1998
R: waltz
Z: 2020 John Chambers <jc:trillian.mit.edu>
S: https://thesession.org/tunes/13235
S: https://www.facebook.com/groups/Fiddletuneoftheday/ 2020-08-04
S: https://www.facebook.com/groups/Fiddletuneoftheday/photos/
M: 3/4
L: 1/8
K: G
(GA) |\
"G"B3 c B2 | "D"A4 GF | "C"E G3 E2 | "G"D3 G A2 |\
   B3 A G2 | "Am"d3 c B2 | "D"A6- | A4 (GA) |
"G"B3 c B2 | "D"A3 G F2 | "C"E G3 E2 | "G"D3 D E2 |\
"^?"G3 c B2 | "D"A3 G F2 | "G"G6- | G4 :|
|: Bc |\
"G"d4- d2 | "C"e4 c2 | "G"B2 d4- | d4 Bc |\
   d4- d2 | "Am"e2 c2 B2 | "D"A6- | A4 GF |
"C"E G3 E2 | "Em"D G3 D2 | "C"E G3 E2 | "G"D4 GA |\
   B3 c B2 | "D"A3 G F2 | "G"G6- | "G"G4 :|
